X: 25562
T: Marino, The
R: waltz
M: 3/4
K: Gmajor
def|:"G" g2 d3 B|"Bm"F4 B2|"C"E4 c2|"D" D6|
"C" C3 D E2|"D" F2 D2 A2|"G" G2 D2 B2|"D" A6|
"G" g2 d3 B|"Bm" F4 f2|"C" e2 d3 c|"Am"E4 e2|
"D" d2 c2 A2|F4 B2|1 "G" G6|zd^cdef:|2 "G" (G6|G4) D2||
|:"G" D2 E2 F2|G2 A2 B2|"Bm" B6|F6|
"C" E6|c4 E2|"D" G4 FE|F6|
"C" C3 D E2|"D" F2 D2 A2|"G" G2 D2 d2|"C" e4 d2|
c2 A2 F2|"D" D4 B2|1 "G" (G6|G4) D2:|2 "G" G6|zd^cdef:|

